X:206
T:Tom Tullus’s Hornpipe. RH.206
T:Tom Tolley’s Hp,aka.206
T:Tom Fowler’s Hp,aka. RH.206
R:.hornpipe
S:Rev.R.Harrison’s MS,c1815,Cumbria
O:England
A:Temple Sowerby,Cumbria
Z:vmp.Simon Wilson. Review PJH, 2008.
M:2/4
L:1/16
Q:1/4=85
K:G
(cd)|(dc)(BA) Ggfg|e4 d4|(cd)(cB) (AB)(AG)|F4 E4|!
(DE)(FG) A2B2|(c3d/e/) d2c2|BAGA D2F2|G6:|!
|:d2|(g2bg) (e2ag)|f4 d4|g2bg e2ag|f4 d2ef|\
gddd gddd|gdgd gddd|!
g3f (ed)(cB)|ABAG F3E|\
DEFG A2B2|(c3d/e/) d2c2|BAGA D2F2|G6:|

